!!!COM:	Martini, Johannes
!!!CDT:	~1440///-~1497//
!!!OTL:	Domine clamavi ad te
!!!AGN:	Motet
!!!SCT:	Mar2033
!!!SCA:	Mar2033
!!!voices:	2
**kern	**kern
*staff2	*staff1
*Ivox	*Ivox
*I"Tenor	*I"Superius
*I'T	*I'S
*>[A,B,C,D,E,F,G,H,I,J,K,L,M]	*>[A,B,C,D,E,F,G,H,I,J,K,L,M]
*>A	*>A
*clefGv2	*clefG2
*k[]	*k[]
*M2/1	*M2/1
*met(C)	*met(C)
=1-	=1-
!!LO:TX:Z=8:t=Choir 1
!!section: Intende voci mee
!!!OMD: Intende voci mee
1c	1cc
1e	1cc
=2	=2
2e\	2cc\
2e\	2cc\
2e\	2cc\
2e\	2cc\
=3	=3
1c	1cc
1e	1cc
=4	=4
2c\	2a/
2d\	2b\
2e\	2cc\
[2f\	[2dd\
=5	=5
2f\]	2dd\]
2e\	1cc
1d	.
.	2b\
=6	=6
0cl	0ccl
=7||	=7||
*>B	*>B
!!section: Dirigitur oratio
!!!OMD: Dirigitur oratio
!!LO:TX:Z=8:t=Choir 2
1e	1cc
2e\	2cc\
2e\	2cc\
=8	=8
1e	1cc
1e	1cc
=9	=9
2e\	2cc\
2e\	2cc\
2e\	2cc\
2e\	2cc\
=10	=10
1c	1cc
2e\	2cc\
2e\	2cc\
=11	=11
2e\	2cc\
2e\	2cc\
1e	1cc
=12	=12
2e\	2cc\
2d\	2b\
2e\	2cc\
[2f\	[2dd\
=13	=13
2f\]	2dd\]
2e\	1cc
1d	.
.	2b\
=14	=14
1c	1cc
1r	1r
=15	=15
2e\	2cc\
2e\	2cc\
2e\	2cc\
2e\	2cc\
=16	=16
1e	1cc
2e\	2cc\
2e\	2cc\
=17	=17
2d\	2b\
2c\	2a/
1d	1b
=18	=18
1c	1cc
2e\	2cc\
2e\	2cc\
=19	=19
2e\	2cc\
2e\	2cc\
1e	1cc
=20	=20
2d\	2b\
2c\	2a/
2B\	2g/
2c\	[2cc\
=21	=21
1d	2cc\]
.	2b\
0cl	0ccl
=22||	=22||
*>C	*>C
!!section: Pone, Domine
!!!OMD: Pone, Domine
!!LO:TX:Z=8:t=Choir 1
1c	1cc
1e	1cc
=23	=23
2e\	2cc\
2e\	2cc\
1c	1cc
=24	=24
1e	1cc
2e\	2cc\
2e\	2cc\
=25	=25
1e	1cc
2d\	2b\
2e\	2cc\
=26	=26
1f	1dd
1c	1cc
=27	=27
1r	1r
1e	1cc
=28	=28
2e\	2cc\
2e\	2cc\
1e	1cc
=29	=29
2e\	2cc\
2e\	2cc\
2e\	2cc\
2e\	2cc\
=30	=30
1c	1cc
2e\	2cc\
[2f\	[2dd\
=31	=31
2f\]	2dd\]
2e\	1cc
1d	.
.	2b\
=32	=32
0cl	0ccl
=33||	=33||
*>D	*>D
!!section: Non declines
!!!OMD: Non declines
!!LO:TX:Z=8:t=Choir 2
1e	1cc
2e\	2cc\
2e\	2cc\
=34	=34
1e	1cc
2e\	2cc\
2e\	2cc\
=35	=35
1c	1cc
2e\	2cc\
2d\	2b\
=36	=36
2e\	2cc\
1f	1dd
2e\	[2cc\
=37	=37
1d	2cc\]
.	2b\
1c	1cc
=38	=38
1r	1r
2e\	2cc\
2e\	2cc\
=39	=39
2e\	2cc\
2e\	2cc\
1c	1cc
=40	=40
2e\	2cc\
2e\	2cc\
2e\	2cc\
2e\	2cc\
=41	=41
1e	1cc
2d\	2b\
2c\	2a/
=42	=42
2B\	2g/
2c\	1cc
1d	.
.	2b\
=43	=43
0cl	0ccl
=44||	=44||
*>E	*>E
!!LO:TX:Z=8:t=Choir 1
!!section: Cum hominibus
!!!OMD: Cum hominibus
1c	1cc
1e	1cc
=45	=45
2e\	2cc\
2e\	2cc\
1e	1cc
=46	=46
2e\	2cc\
2e\	2cc\
2e\	2cc\
2e\	2cc\
=47	=47
1c	1cc
2e\	2cc\
2d\	[2dd\
=48	=48
2f\	2dd\]
2e\	1cc
1d	.
.	2b\
=49	=49
1c	1cc
1r	1r
=50	=50
1e	1cc
1e	1cc
=51	=51
2e\	2cc\
2e\	2cc\
2e\	2cc\
2e\	2cc\
=52	=52
1c	1cc
2c\	2a/
2d\	2b\
=53	=53
2e\	2cc\
1f	1dd
2e\	[2cc\
=54	=54
1d	2cc\]
.	2b\
1cl	1ccl
=55||	=55||
*>F	*>F
!!LO:TX:Z=8:t=Choir 2
!!section: Corripiet me
!!!OMD: Corripiet me
2e\	2cc\
2e\	2cc\
2e\	2cc\
2e\	2cc\
=56	=56
1c	1cc
1e	1cc
=57	=57
1e	1cc
1e	1cc
=58	=58
2e\	2cc\
2e\	2cc\
2d\	2b\
2c\	[2a/
=59	=59
1B	2a/]
.	2g#i/
1A	1a
=60	=60
1e	1cc
1e	1cc
=61	=61
1d	1b
2.c\	2.a/
4d\	4b\
=62	=62
2e\	2cc\
2f\	1dd
1e	.
.	2cc#i\
=63	=63
1d	1dd
1r	1r
=64	=64
2e\	2cc\
2e\	2cc\
2e\	2cc\
2e\	2cc\
=65	=65
1c	1cc
2d\	2b\
2c\	2a/
=66	=66
1d	1b
1e	1cc
=67	=67
1e	1cc
2e\	2cc\
2e\	2cc\
=68	=68
1e	1cc
2d\	2b\
2c\	2a/
=69	=69
2B\	2g/
2c\	1cc
1d	.
.	2b\
=70	=70
0cl	0ccl
=71||	=71||
*>G	*>G
!!section: Quoniam adhuc
!!!OMD: Quoniam adhuc
!!LO:TX:Z=8:t=Choir 1
2e\	2cc\
2e\	2cc\
2e\	2cc\
2e\	2cc\
=72	=72
1e	1cc
1e	1cc
=73	=73
1e	1cc
2e\	2cc\
2e\	2cc\
=74	=74
2e\	2cc\
2e\	2cc\
1c	1cc
=75	=75
1e	1cc
2e\	2cc\
2e\	2cc\
=76	=76
2e\	2cc\
2e\	2cc\
1e	1cc
=77	=77
1e	1cc
1f	1dd
=78	=78
1c	1cc
1r	1r
=79	=79
1e	1cc
2e\	2cc\
2e\	2cc\
=80	=80
1e	1cc
2d\	2b\
2c\	2a/
=81	=81
1d	1b
1e	1cc
=82	=82
2c\	2a/
2d\	2b\
2e\	2cc\
[2f\	[2dd\
=83	=83
2f\]	2dd\]
2e\	1cc
1d	.
.	2b\
=84	=84
0cl	0ccl
=85||	=85||
*>H	*>H
!!section: Audient verba
!!!OMD: Audient verba
!!LO:TX:Z=8:t=Choir 2
1c	1cc
1e	1cc
=86	=86
1e	1cc
2e\	2cc\
2e\	2cc\
=87	=87
1e	1cc
1c	1cc
=88	=88
2e\	2cc\
2e\	2cc\
2e\	2cc\
[2f\	[2dd\
=89	=89
2f\]	2dd\]
2e\	1cc
1d	.
.	2b\
=90	=90
1c	1cc
1r	1r
=91	=91
1e	1cc
2e\	2cc\
2e\	2cc\
=92	=92
2e\	2cc\
2e\	2cc\
1e	1cc
=93	=93
1d	1b
1c	1a
=94	=94
1d	1b
2e\	2cc\
2e\	2cc\
=95	=95
1e	1cc
2d\	2b\
2c\	2a/
=96	=96
2B\	2g/
2c\	1cc
1d	.
.	2b\
=97	=97
0cl	0ccl
=98||	=98||
*>I	*>I
!!section: Dissipata sunt
!!!OMD: Dissipata sunt
!!LO:TX:Z=8:t=Choir 1
2e\	2cc\
2e\	2cc\
2e\	2cc\
2e\	2cc\
=99	=99
1e	1cc
2e\	2cc\
2e\	2cc\
=100	=100
1e	1cc
1c	1cc
=101	=101
2e\	2cc\
2e\	2cc\
2d\	2b\
2c\	2a/
=102	=102
1d	1b
1A	1a
=103	=103
1r	1r
1c	1a
=104	=104
1d	1b
2e\	2cc\
2e\	2cc\
=105	=105
2e\	2cc\
2e\	2cc\
1c	1cc
=106	=106
2e\	2cc\
2e\	2cc\
2d\	2b\
2e\	2cc\
=107	=107
2f\	2dd\
2e\	1cc
1d	.
.	2b\
=108	=108
1c	1cc
1r	1r
=109	=109
1c	1cc
1e	1cc
=110	=110
2e\	2cc\
2e\	2cc\
1e	1cc
=111	=111
1e	1cc
2e\	2cc\
2e\	2cc\
=112	=112
1e	1cc
2d\	2b\
2c\	2a/
=113	=113
2B\	2g/
2c\	1cc
1d	.
.	2b\
=114	=114
0cl	0ccl
=115||	=115||
*>J	*>J
!!section: Custodi me
!!!OMD: Custodi me
!!LO:TX:Z=8:t=Choir 2
1e	1cc
2e\	2cc\
2e\	2cc\
=116	=116
1e	1cc
1e	1cc
=117	=117
2e\	2cc\
2e\	2cc\
1c	1cc
=118	=118
1e	1cc
2e\	2cc\
2e\	2cc\
=119	=119
2e\	2cc\
1f	1dd
2e\	[2cc\
=120	=120
1d	2cc\]
.	2b\
1c	1cc
=121	=121
1r	1r
2e\	2cc\
2e\	2cc\
=122	=122
2e\	2cc\
2e\	2cc\
1c	1cc
=123	=123
2e\	2cc\
2e\	2cc\
2e\	2cc\
2e\	2cc\
=124	=124
1e	1cc
2d\	2b\
2c\	2a/
=125	=125
2B\	2g/
2c\	1cc
1d	.
.	2b\
=126	=126
0cl	0ccl
=127||	=127||
*>K	*>K
!!section: Cadent in retiaculum
!!!OMD: Cadent in retiaculum
!!LO:TX:Z=8:t=Choir 1
1c	1cc
1e	1cc
=128	=128
1e	1cc
2e\	2cc\
2e\	2cc\
=129	=129
2e\	2cc\
2e\	2cc\
1c	1cc
=130	=130
2d\	2b\
2e\	2cc\
2f\	2dd\
2e\	[2cc\
=131	=131
1d	2cc\]
.	2b\
1c	1cc
=132	=132
1r	1r
2e\	2cc\
2e\	2cc\
=133	=133
2e\	2cc\
2e\	2cc\
1e	1cc
=134	=134
1d	1b
2c\	2a/
2d\	2b\
=135	=135
2e\	2cc\
1f	1dd
2e\	[2cc\
=136	=136
1d	2cc\]
.	2b\
1cl	1ccl
=137||	=137||
*>L	*>L
!!LO:TX:Z=8:t=Choir 2
!!section: Gloria Patri
!!!OMD: Gloria Patri
1e	1cc
2e\	2cc\
2e\	2cc\
=138	=138
1e	1cc
2e\	2cc\
[2f\	[2dd\
=139	=139
2f\]	2dd\]
2e\	1cc
1d	.
.	2b\
=140	=140
1c	1cc
1r	1r
=141	=141
1e	1cc
2e\	2cc\
2e\	2cc\
=142	=142
1d	1b
1c	1a
=143	=143
2.B\	2.g/
4c\	4a/
2d\	2b\
2e\	[2cc\
=144	=144
1d	2cc\]
.	2b\
1cl	1ccl
=145||	=145||
*>M	*>M
!!LO:TX:Z=8:t=Choir 1
!!section: Sicut erat
!!!OMD: Sicut erat
2e\	2cc\
2e\	2cc\
2e\	2cc\
2e\	2cc\
=146	=146
2e\	2cc\
2e\	2cc\
2e\	2cc\
2e\	2cc\
=147	=147
1c	1cc
2e\	2cc\
2d\	[2dd\
=148	=148
2f\	2dd\]
2e\	1cc
1d	.
.	2b\
=149	=149
1c	1cc
1r	1r
=150	=150
2e\	2cc\
2e\	2cc\
2e\	2cc\
2e\	2cc\
=151	=151
1e	1cc
2d\	2b\
2c\	2a/
=152	=152
2B\	2g/
2c\	1cc
1d	.
.	2b\
=153	=153
0cl	0ccl
==	==
*-	*-
!!!RDF**kern: l=long note in original notation
!!!RDF**kern: i=editorial accidental
!!!ENC:	Chris Gage 03-13-2014
!!!END:	2014/10/07/
!!!EED:	Jesse Rodin
!!!EEV:	2014/10/17/
!!!ONB:	Translated from MusicXML and edited on 2014/10/17/ by Craig Sapp
!!muse2ps: C^@{COM}^i2I150v85,150Q16
